X: 10311
T: QUICK STEP No. 5.
C:
%R: quickstep
B: Elias Howe "The Musician's Companion" Part 1 1842 p.31 #1
S: http://imslp.org/wiki/The_Musician's_Companion_(Howe,_Elias)
Z: 2015 John Chambers <jc:trillian.mit.edu>
N: The 1st strain has 8.5 bars.  You may "fix" this however you like, or not.
M: 2/4
L: 1/16
K: D
% - - - - - - - - - - - - - - - - - - - - - - - - -
f3e |\
d3e d2D2 | F2A2 A4 | B2A2G2F2 | E2e2 e2f2 |\
g2f2e2d2 | cdec A4 | BABd efge | f2d2 d4 :|
|:\
fefg a4 | edef g4 | edef g2f2 | edcB A4 |\
ded=c B2B2 | efed c2BA | a2b g2e2 | BABc d4 :|
% - - - - - - - - - - - - - - - - - - - - - - - - -
